public/img/old-svg/driver-2.svg

<svg width="10" height="13" viewBox="0 0 10 13" fill="none" xmlns="http://www.w3.org/2000/svg">
<path d="M8.37891 1.9043C8.37891 0.818619 6.90531 0 4.95117 0C2.99703 0 1.52344 0.818619 1.52344 1.9043C1.52344 2.11468 1.69396 2.28516 1.9043 2.28516H7.99805C8.20838 2.28516 8.37891 2.11468 8.37891 1.9043Z" fill="#EC824A"/>
<path d="M4.12114 10.7814L4.42906 10.3709L3.9834 10.0029L4.12114 10.7814Z" fill="#EC824A"/>
<path d="M5.39402 12.9998L5.60045 11.808L4.95162 10.9429L4.30273 11.808L4.50916 12.9998H5.39402Z" fill="#EC824A"/>
<path d="M5.92016 10.0034L5.47461 10.3713L5.78242 10.7817L5.92016 10.0034Z" fill="#EC824A"/>
<path d="M2.9312 8.43018L2.72739 8.46364C1.14705 8.72214 0 10.0641 0 11.6548V12.9999H3.73547L2.9312 8.43018Z" fill="#EC824A"/>
<path d="M9.90251 11.6548C9.90251 10.0641 8.75547 8.72214 7.17513 8.46364L6.97116 8.43018L6.16699 12.9999H9.90251V11.6548Z" fill="#EC824A"/>
<path d="M6.21321 8.34424C6.05061 8.3773 5.88562 8.40421 5.71309 8.40421H4.18965C4.01707 8.40421 3.85203 8.3773 3.68945 8.34424L3.77819 8.84578L4.95137 9.81458L6.12439 8.84593L6.21321 8.34424Z" fill="#EC824A"/>
<path d="M4.18945 7.64252H5.71289C6.76287 7.64252 7.61719 6.78821 7.61719 5.73823V4.73926C7.39223 4.87045 7.13418 4.95112 6.85547 4.95112H3.04688C2.76816 4.95112 2.51012 4.87045 2.28516 4.73926V5.73823C2.28516 6.78821 3.13947 7.64252 4.18945 7.64252Z" fill="#EC824A"/>
<path d="M3.04688 4.18945H6.85547C7.27617 4.18945 7.61719 3.84843 7.61719 3.42773V3.04688H2.28516V3.42773C2.28516 3.84843 2.62618 4.18945 3.04688 4.18945Z" fill="#EC824A"/>
</svg>

<svg width="10" height="13" viewBox="0 0 10 13" fill="none" xmlns="http://www.w3.org/2000/svg"><path d="M8.379 1.904C8.379.82 6.905 0 4.95 0S1.523.819 1.523 1.904c0 .21.171.381.381.381h6.094c.21 0 .38-.17.38-.38zm-4.258 8.877l.308-.41-.446-.368.138.778zM5.394 13l.206-1.192-.648-.865-.65.865L4.51 13h.885zm.526-2.997l-.445.368.307.41.138-.778zM2.931 8.43l-.204.034A3.23 3.23 0 000 11.654V13h3.735l-.804-4.57zm6.972 3.225a3.23 3.23 0 00-2.728-3.191l-.204-.034L6.167 13h3.736v-1.345zm-3.69-3.311c-.162.033-.327.06-.5.06H4.19c-.173 0-.338-.027-.5-.06l.088.502 1.173.969 1.173-.97.09-.5zM4.19 7.643h1.523c1.05 0 1.904-.855 1.904-1.905V4.74a1.506 1.506 0 01-.762.212H3.047c-.279 0-.537-.08-.762-.212v1c0 1.05.854 1.904 1.904 1.904zM3.047 4.19h3.808a.762.762 0 00.762-.762v-.381H2.285v.38c0 .421.341.762.762.762z" fill="#EC824A"/></svg>
